app/images/customer-modal/modal-right-arrow.svg

<svg width="199" height="189" viewBox="0 0 199 189" fill="none" xmlns="http://www.w3.org/2000/svg">
<path d="M1.9774 185C0.872904 185.013 -0.0123525 185.918 0.000127673 187.023C0.0126079 188.127 0.918098 189.012 2.0226 189L1.9774 185ZM185.452 0.624939C184.693 -0.17715 183.427 -0.211736 182.625 0.547689L169.554 12.9232C168.752 13.6827 168.717 14.9485 169.477 15.7506C170.236 16.5527 171.502 16.5873 172.304 15.8279L183.923 4.82737L194.923 16.4459C195.683 17.248 196.949 17.2825 197.751 16.5231C198.553 15.7637 198.587 14.4978 197.828 13.6957L185.452 0.624939ZM2.0226 189C31.8584 188.663 76.7896 178.921 114.815 150.757C152.93 122.528 183.982 75.8743 185.999 2.05462L182.001 1.94538C180.018 74.5257 149.57 120.039 112.435 147.543C75.2104 175.113 31.1416 184.671 1.9774 185L2.0226 189Z" fill="#8446F5"/>
</svg>

<svg width="199" height="189" fill="none" xmlns="http://www.w3.org/2000/svg"><path d="M1.977 185a2 2 0 00.046 4l-.046-4zM185.452.625a2 2 0 00-2.827-.077l-13.071 12.375a2 2 0 102.75 2.905l11.619-11 11 11.618a2 2 0 002.905-2.75L185.452.625zM2.022 189c29.836-.337 74.768-10.079 112.793-38.243 38.115-28.229 69.167-74.883 71.184-148.702l-3.998-.11c-1.983 72.58-32.431 118.094-69.566 145.598C75.21 175.113 31.142 184.671 1.977 185l.046 4z" fill="#8446F5"/></svg>
